X:6
T:150. The Steampacket
S:Mike Rafferty
Z:Lesl
M:C|
L:1/8
K:G
dc|A~G3 AGFD|A~G3 Az dc|A~G3 AGFD|E~F2G Az cA|
A~G3 AGFD|A~G3 Az dc|A~G3 AGFD|E~F2G Az cA|]
|d~g3 agfd|dz ge fdcA|d~g3 agfd|dz eg fdcA|
d~g3 agfg|abag f~f2g|afge fde^c|dz eg fdcA||

